img/android.svg

<svg version="1" xmlns="http://www.w3.org/2000/svg" width="42.084" height="47.041" viewBox="0 0 42.084 47.041"><path fill="#A4C639" d="M34.144 14.009h-26.199l-.018.333v18.754c0 1.926 1.457 3.491 3.316 3.628v7.433c0 1.594 1.291 2.885 2.885 2.885 1.593 0 2.885-1.291 2.885-2.885v-7.419h8.058v7.419c0 1.594 1.292 2.885 2.885 2.885 1.595 0 2.886-1.291 2.886-2.885v-7.433c1.858-.137 3.315-1.702 3.315-3.628v-18.754l-.013-.333z"/><path fill="#A4C639" d="M2.886 15.679c1.593 0 2.886 1.292 2.886 2.885v12.378c0 1.595-1.292 2.886-2.886 2.886s-2.886-1.291-2.886-2.886v-12.378c0-1.594 1.292-2.885 2.886-2.885z"/><path fill="#A4C639" d="M39.198 15.679c1.595 0 2.886 1.292 2.886 2.885v12.378c0 1.595-1.291 2.886-2.886 2.886-1.594 0-2.885-1.291-2.885-2.886v-12.378c0-1.594 1.291-2.885 2.885-2.885z"/><path fill="#A4C639" d="M8.03 11.967h26.025c-.039-2.783-1.234-5.322-3.186-7.275l2.446-4.235c.082-.146.032-.331-.112-.415-.146-.084-.331-.034-.415.111l-2.372 4.107c-2.052-1.853-4.821-3.101-7.924-3.4h-2.9c-3.102.299-5.872 1.547-7.924 3.4l-2.372-4.108c-.083-.145-.269-.194-.415-.111-.145.084-.195.27-.111.415l2.445 4.235c-1.95 1.954-3.147 4.493-3.185 7.276zm17.293-5.163c-.002-.805.664-1.46 1.489-1.462.825-.002 1.494.648 1.497 1.454v.008c.002.805-.664 1.46-1.489 1.462-.824.002-1.494-.649-1.497-1.454v-.008zm-11.143 0c-.001-.805.665-1.46 1.489-1.462.824-.002 1.494.648 1.497 1.454v.008c.002.805-.664 1.46-1.488 1.462-.825.002-1.495-.649-1.498-1.454v-.008z"/></svg>

<?xml version="1.0" encoding="utf-8"?>
<!-- Generator: Adobe Illustrator 15.0.0, SVG Export Plug-In . SVG Version: 6.00 Build 0)  -->
<!DOCTYPE svg PUBLIC "-//W3C//DTD SVG 1.0//EN" "http://www.w3.org/TR/2001/REC-SVG-20010904/DTD/svg10.dtd">
<svg version="1.0" id="Layer_1" xmlns="http://www.w3.org/2000/svg" xmlns:xlink="http://www.w3.org/1999/xlink" x="0px" y="0px"
	 width="42.084px" height="47.041px" viewBox="0 0 42.084 47.041" enable-background="new 0 0 42.084 47.041" xml:space="preserve">
<path fill="#A4C639" d="M34.144,14.009H7.945c-0.009,0.11-0.018,0.22-0.018,0.333v18.754c0,1.926,1.457,3.491,3.316,3.628v7.433
	c0,1.594,1.291,2.885,2.885,2.885c1.593,0,2.885-1.291,2.885-2.885v-7.419h8.058v7.419c0,1.594,1.292,2.885,2.885,2.885
	c1.595,0,2.886-1.291,2.886-2.885v-7.433c1.858-0.137,3.315-1.702,3.315-3.628V14.342C34.157,14.229,34.153,14.119,34.144,14.009z"
	/>
<path id="c-4-9-2-9-2-9" fill="#A4C639" d="M2.886,15.679L2.886,15.679c1.593,0,2.886,1.292,2.886,2.885v12.378
	c0,1.595-1.292,2.886-2.886,2.886l0,0C1.292,33.828,0,32.537,0,30.942V18.564C0,16.97,1.292,15.679,2.886,15.679z"/>
<path id="c-4-1-7-3-8-4" fill="#A4C639" d="M39.198,15.679L39.198,15.679c1.595,0,2.886,1.292,2.886,2.885v12.378
	c0,1.595-1.291,2.886-2.886,2.886l0,0c-1.594,0-2.885-1.291-2.885-2.886V18.564C36.313,16.97,37.604,15.679,39.198,15.679z"/>
<path fill="#A4C639" d="M8.03,11.967h26.025c-0.039-2.783-1.234-5.322-3.186-7.275l2.446-4.235c0.082-0.146,0.032-0.331-0.112-0.415
	c-0.146-0.084-0.331-0.034-0.415,0.111L30.416,4.26c-2.052-1.853-4.821-3.101-7.924-3.4h-2.9c-3.102,0.299-5.872,1.547-7.924,3.4
	L9.296,0.152C9.213,0.007,9.027-0.042,8.881,0.041C8.736,0.125,8.686,0.311,8.77,0.456l2.445,4.235
	C9.265,6.645,8.068,9.184,8.03,11.967z M25.323,6.804c-0.002-0.805,0.664-1.46,1.489-1.462c0.825-0.002,1.494,0.648,1.497,1.454
	c0,0.002,0,0.005,0,0.008c0.002,0.805-0.664,1.46-1.489,1.462c-0.824,0.002-1.494-0.649-1.497-1.454
	C25.323,6.81,25.323,6.807,25.323,6.804z M14.18,6.804c-0.001-0.805,0.665-1.46,1.489-1.462c0.824-0.002,1.494,0.648,1.497,1.454
	c0,0.002,0,0.005,0,0.008c0.002,0.805-0.664,1.46-1.488,1.462c-0.825,0.002-1.495-0.649-1.498-1.454
	C14.18,6.81,14.18,6.807,14.18,6.804z"/>
</svg>
